SVG_Azure_All/Data Lake Storage Gen2.svg

<?xml version="1.0" encoding="UTF-8" standalone="no"?>
<!-- Generated by Microsoft Visio, SVG Export Data Lake Storage Gen2.svg Page-1 -->

<svg
   xmlns:dc="http://purl.org/dc/elements/1.1/"
   xmlns:cc="http://creativecommons.org/ns#"
   xmlns:rdf="http://www.w3.org/1999/02/22-rdf-syntax-ns#"
   xmlns:svg="http://www.w3.org/2000/svg"
   xmlns="http://www.w3.org/2000/svg"
   xmlns:sodipodi="http://sodipodi.sourceforge.net/DTD/sodipodi-0.dtd"
   xmlns:inkscape="http://www.inkscape.org/namespaces/inkscape"
   width="0.78736037in"
   height="0.66930491in"
   viewBox="0 0 56.689945 48.189997"
   xml:space="preserve"
   class="st6"
   version="1.1"
   id="svg46"
   sodipodi:docname="Data Lake Storage Gen2.svg"
   style="font-size:12px;overflow:visible;color-interpolation-filters:sRGB;fill:none;fill-rule:evenodd;stroke-linecap:square;stroke-miterlimit:3"
   inkscape:version="0.92.5 (2060ec1f9f, 2020-04-08)"><metadata
   id="metadata52"><rdf:RDF><cc:Work
       rdf:about=""><dc:format>image/svg+xml</dc:format><dc:type
         rdf:resource="http://purl.org/dc/dcmitype/StillImage" /></cc:Work></rdf:RDF></metadata><defs
   id="defs50" /><sodipodi:namedview
   pagecolor="#ffffff"
   bordercolor="#666666"
   borderopacity="1"
   objecttolerance="10"
   gridtolerance="10"
   guidetolerance="10"
   inkscape:pageopacity="0"
   inkscape:pageshadow="2"
   inkscape:window-width="640"
   inkscape:window-height="480"
   id="namedview48"
   showgrid="false"
   inkscape:zoom="2.0339329"
   inkscape:cx="37.795243"
   inkscape:cy="12.656653"
   inkscape:window-x="0"
   inkscape:window-y="0"
   inkscape:window-maximized="0"
   inkscape:current-layer="svg46" />
	<style
   type="text/css"
   id="style2">
	<![CDATA[
		.st1 {fill:#a0a1a2;stroke:none;stroke-linecap:butt;stroke-width:0.75}
		.st2 {fill:#7a7a7a;stroke:none;stroke-linecap:butt;stroke-width:0.75}
		.st3 {fill:#0072c6;stroke:none;stroke-linecap:butt;stroke-width:0.75}
		.st4 {fill:#ffffff;stroke:none;stroke-linecap:butt;stroke-width:0.75}
		.st5 {fill:#ffffff;fill-opacity:0.2;stroke:none;stroke-linecap:butt;stroke-width:0.75}
		.st6 {fill:none;fill-rule:evenodd;font-size:12px;overflow:visible;stroke-linecap:square;stroke-miterlimit:3}
	]]>
	</style>

	<g
   id="g44"
   transform="translate(-5.669324,-4.8143)">
		<title
   id="title4">Page-1</title>
		<g
   id="group5839-1"
   transform="translate(5.66929,-34.0157)">
			<title
   id="title6">Data Lake Storage Gen2</title>
			<g
   id="shape5840-2">
				<title
   id="title8">Sheet.5840</title>
				<path
   d="m 0,84.89 c 0,1.12 0.91,2.13 2.04,2.13 h 52.5 c 1.13,0 2.15,-0.9 2.15,-2.13 V 47.67 H 0 Z"
   class="st1"
   id="path10"
   inkscape:connector-curvature="0"
   style="fill:#a0a1a2;stroke:none;stroke-width:0.75;stroke-linecap:butt" />
			</g>
			<g
   id="shape5841-4"
   transform="translate(0,-39.3543)">
				<title
   id="title13">Sheet.5841</title>
				<path
   d="M 54.54,78.19 H 2.04 C 0.91,78.19 0,79.24 0,80.4 v 6.62 H 56.69 V 80.4 c 0,-1.16 -0.9,-2.21 -2.15,-2.21 z"
   class="st2"
   id="path15"
   inkscape:connector-curvature="0"
   style="fill:#7a7a7a;stroke:none;stroke-width:0.75;stroke-linecap:butt" />
			</g>
			<g
   id="shape5842-6"
   transform="translate(4.04949,-20.8819)">
				<title
   id="title18">Sheet.5842</title>
				<rect
   x="0"
   y="72.566902"
   width="23.487101"
   height="14.4567"
   class="st3"
   id="rect20"
   style="fill:#0072c6;stroke:none;stroke-width:0.75;stroke-linecap:butt" />
			</g>
			<g
   id="shape5843-8"
   transform="translate(4.04949,-4.01575)">
				<title
   id="title23">Sheet.5843</title>
				<rect
   x="0"
   y="72.566902"
   width="23.487101"
   height="14.4567"
   class="st3"
   id="rect25"
   style="fill:#0072c6;stroke:none;stroke-width:0.75;stroke-linecap:butt" />
			</g>
			<g
   id="shape5844-10"
   transform="translate(29.1564,-20.8819)">
				<title
   id="title28">Sheet.5844</title>
				<rect
   x="0"
   y="72.566902"
   width="22.6772"
   height="14.4567"
   class="st4"
   id="rect30"
   style="fill:#ffffff;stroke:none;stroke-width:0.75;stroke-linecap:butt" />
			</g>
			<g
   id="shape5845-12"
   transform="translate(29.1564,-4.01575)">
				<title
   id="title33">Sheet.5845</title>
				<rect
   x="0"
   y="72.566902"
   width="22.6772"
   height="14.4567"
   class="st3"
   id="rect35"
   style="fill:#0072c6;stroke:none;stroke-width:0.75;stroke-linecap:butt" />
			</g>
			<g
   id="shape5846-14">
				<title
   id="title38">Sheet.5846</title>
				<path
   d="M 2.27,38.83 C 1.02,38.83 0,39.85 0,41.1 v 8.25 3.74 31.67 c 0,1.25 1.02,2.26 2.27,2.26 H 4.76 L 49.4,38.83 Z"
   class="st5"
   id="path40"
   inkscape:connector-curvature="0"
   style="fill:#ffffff;fill-opacity:0.2;stroke:none;stroke-width:0.75;stroke-linecap:butt" />
			</g>
		</g>
	</g>
</svg>

<?xml version="1.0" encoding="UTF-8" standalone="no"?>
<!DOCTYPE svg PUBLIC "-//W3C//DTD SVG 1.1//EN" "http://www.w3.org/Graphics/SVG/1.1/DTD/svg11.dtd">
<!-- Generated by Microsoft Visio, SVG Export Data Lake Storage Gen2.svg Page-1 -->
<svg xmlns="http://www.w3.org/2000/svg" xmlns:xlink="http://www.w3.org/1999/xlink" xmlns:ev="http://www.w3.org/2001/xml-events"
		width="0.944882in" height="1.20866in" viewBox="0 0 68.0315 87.0236" xml:space="preserve" color-interpolation-filters="sRGB"
		class="st6">
	<style type="text/css">
	<![CDATA[
		.st1 {fill:#a0a1a2;stroke:none;stroke-linecap:butt;stroke-width:0.75}
		.st2 {fill:#7a7a7a;stroke:none;stroke-linecap:butt;stroke-width:0.75}
		.st3 {fill:#0072c6;stroke:none;stroke-linecap:butt;stroke-width:0.75}
		.st4 {fill:#ffffff;stroke:none;stroke-linecap:butt;stroke-width:0.75}
		.st5 {fill:#ffffff;fill-opacity:0.2;stroke:none;stroke-linecap:butt;stroke-width:0.75}
		.st6 {fill:none;fill-rule:evenodd;font-size:12px;overflow:visible;stroke-linecap:square;stroke-miterlimit:3}
	]]>
	</style>

	<g>
		<title>Page-1</title>
		<g id="group5720-1" transform="translate(5.66929,-34.0157)">
			<title>Data Lake Storage Gen2</title>
			<g id="shape5721-2">
				<title>Sheet.5721</title>
				<path d="M0 84.89 C0 86.01 0.91 87.02 2.04 87.02 L54.54 87.02 C55.67 87.02 56.69 86.12 56.69 84.89 L56.69 47.67 L0
							 47.67 L0 84.89 Z" class="st1"/>
			</g>
			<g id="shape5722-4" transform="translate(0,-39.3543)">
				<title>Sheet.5722</title>
				<path d="M54.54 78.19 L2.04 78.19 C0.91 78.19 0 79.24 0 80.4 L0 87.02 L56.69 87.02 L56.69 80.4 C56.69 79.24 55.79
							 78.19 54.54 78.19 Z" class="st2"/>
			</g>
			<g id="shape5723-6" transform="translate(4.04949,-20.8819)">
				<title>Sheet.5723</title>
				<rect x="0" y="72.5669" width="23.4871" height="14.4567" class="st3"/>
			</g>
			<g id="shape5724-8" transform="translate(4.04949,-4.01575)">
				<title>Sheet.5724</title>
				<rect x="0" y="72.5669" width="23.4871" height="14.4567" class="st3"/>
			</g>
			<g id="shape5725-10" transform="translate(29.1564,-20.8819)">
				<title>Sheet.5725</title>
				<rect x="0" y="72.5669" width="22.6772" height="14.4567" class="st4"/>
			</g>
			<g id="shape5726-12" transform="translate(29.1564,-4.01575)">
				<title>Sheet.5726</title>
				<rect x="0" y="72.5669" width="22.6772" height="14.4567" class="st3"/>
			</g>
			<g id="shape5727-14">
				<title>Sheet.5727</title>
				<path d="M2.27 38.83 C1.02 38.83 0 39.85 0 41.1 L0 49.35 L0 53.09 L0 84.76 C0 86.01 1.02 87.02 2.27 87.02 L4.76 87.02
							 L49.4 38.83 L2.27 38.83 Z" class="st5"/>
			</g>
		</g>
	</g>
</svg>
